src/categories-icons-sprite/categories/svg-cat-accessories-child-bags.svg

<svg width="29" height="36" viewBox="0 0 29 36" fill="none" xmlns="http://www.w3.org/2000/svg">
<path class="p-005ECE" d="M28.2324 26.5039H23.2754V34.2336H28.2324V26.5039Z" fill="#4D98CB"/>
<path class="p-006DF0" d="M23.3351 19.0425H23.2754V26.5038H28.2324V23.5254C28.2324 21.0535 26.0355 19.0425 23.3351 19.0425Z" fill="#58ADE5"/>
<path class="p-005ECE" d="M4.95696 26.5039H0V34.2336H4.95696V26.5039Z" fill="#4D98CB"/>
<path class="p-006DF0" d="M4.95696 19.0425H4.89724C2.19684 19.0425 0 21.0535 0 23.5254V26.5038H4.95696V19.0425Z" fill="#58ADE5"/>
<path class="p-006DF0" d="M12.1427 4.09525C12.1427 3.4794 12.6437 2.12122 14.1167 2.12122C15.4292 2.12122 16.0908 3.4794 16.0908 4.09525V5.25681C17.134 5.36373 17.2766 5.61942 18.212 6.00117V4.09525C18.212 1.83713 16.3748 0 14.1167 0C11.8586 0 10.0215 1.83713 10.0215 4.09525V6.00117C10.9569 5.6195 11.0995 5.36381 12.1427 5.25681V4.09525Z" fill="#58ADE5"/>
<path class="p-FFDE55" d="M12.1782 16.7053V24.7894H9.19989V16.7053H3.24316V36H14.1166V16.7053H12.1782Z" fill="#5FBEFF"/>
<path class="p-FFD422" d="M24.9897 16.7053H19.033V24.7894H16.0546V16.7053H14.1162V36H24.9897V16.7053Z" fill="#76B7E2"/>
<path class="p-00E7F0" d="M9.19989 12.238H12.1782V16.7055H14.1166V4.34277C13.7396 4.34277 13.367 4.36213 12.9998 4.39981C11.9565 4.50673 10.9567 4.76242 10.0214 5.14418C6.04967 6.76493 3.24316 10.6687 3.24316 15.2163V16.7055H9.19989V12.238Z" fill="#B9DFFC"/>
<path class="p-00D7DF" d="M14.1162 4.34277V16.7054H16.0546V12.2379H19.033V16.7054H24.9897V15.2162C24.9897 10.6687 22.1832 6.76485 18.2115 5.1441C17.276 4.76242 16.2763 4.50673 15.2331 4.39973C14.8659 4.36221 14.4933 4.34277 14.1162 4.34277Z" fill="#A1D1FD"/>
<path class="p-006DF0" d="M12.1786 12.2378H9.2002V24.7894H12.1786V12.2378Z" fill="#58ADE5"/>
<path class="p-006DF0" d="M19.034 12.2378H16.0557V24.7894H19.034V12.2378Z" fill="#58ADE5"/>
</svg>

<svg width="29" height="36" fill="none" xmlns="http://www.w3.org/2000/svg"><path class="p-005ECE" d="M28.232 26.504h-4.957v7.73h4.957v-7.73z" fill="#4D98CB"/><path class="p-006DF0" d="M23.335 19.043h-.06v7.46h4.957v-2.978c0-2.471-2.197-4.482-4.897-4.482z" fill="#58ADE5"/><path class="p-005ECE" d="M4.957 26.504H0v7.73h4.957v-7.73z" fill="#4D98CB"/><path class="p-006DF0" d="M4.957 19.043h-.06c-2.7 0-4.897 2.01-4.897 4.482v2.979h4.957v-7.462zM12.143 4.095c0-.616.5-1.974 1.974-1.974 1.312 0 1.974 1.358 1.974 1.974v1.162c1.043.107 1.186.362 2.121.744V4.095A4.1 4.1 0 0014.117 0a4.1 4.1 0 00-4.096 4.095v1.906c.936-.381 1.079-.637 2.122-.744V4.095z" fill="#58ADE5"/><path class="p-FFDE55" d="M12.178 16.705v8.084H9.2v-8.084H3.243V36h10.874V16.705h-1.939z" fill="#5FBEFF"/><path class="p-FFD422" d="M24.99 16.705h-5.957v8.084h-2.978v-8.084h-1.939V36H24.99V16.705z" fill="#76B7E2"/><path class="p-00E7F0" d="M9.2 12.238h2.978v4.468h1.939V4.343a10.783 10.783 0 00-4.095.801C6.05 6.764 3.242 10.67 3.242 15.216v1.49H9.2v-4.468z" fill="#B9DFFC"/><path class="p-00D7DF" d="M14.116 4.343v12.362h1.939v-4.467h2.978v4.467h5.957v-1.489c0-4.547-2.807-8.451-6.778-10.072a10.791 10.791 0 00-4.096-.801z" fill="#A1D1FD"/><path class="p-006DF0" d="M12.179 12.238H9.2v12.551h2.979V12.238zM19.034 12.238h-2.978v12.551h2.978V12.238z" fill="#58ADE5"/></svg>
